images_Kids_svg/res/sx03254.svg

<?xml version="1.0" encoding="UTF-8" standalone="no"?>
<svg
   xmlns:dc="http://purl.org/dc/elements/1.1/"
   xmlns:cc="http://creativecommons.org/ns#"
   xmlns:rdf="http://www.w3.org/1999/02/22-rdf-syntax-ns#"
   xmlns:svg="http://www.w3.org/2000/svg"
   xmlns="http://www.w3.org/2000/svg"
   xmlns:sodipodi="http://sodipodi.sourceforge.net/DTD/sodipodi-0.dtd"
   xmlns:inkscape="http://www.inkscape.org/namespaces/inkscape"
   viewBox="0 0 16 16"
   version="1.1"
   id="svg4"
   sodipodi:docname="sx03254.svg"
   inkscape:version="0.92.4 (unknown)">
  <metadata
     id="metadata10">
    <rdf:RDF>
      <cc:Work
         rdf:about="">
        <dc:format>image/svg+xml</dc:format>
        <dc:type
           rdf:resource="http://purl.org/dc/dcmitype/StillImage" />
      </cc:Work>
    </rdf:RDF>
  </metadata>
  <defs
     id="defs8" />
  <sodipodi:namedview
     pagecolor="#ffffff"
     bordercolor="#666666"
     borderopacity="1"
     objecttolerance="10"
     gridtolerance="10"
     guidetolerance="10"
     inkscape:pageopacity="0"
     inkscape:pageshadow="2"
     inkscape:window-width="1366"
     inkscape:window-height="707"
     id="namedview6"
     showgrid="false"
     inkscape:zoom="14.75"
     inkscape:cx="-3.3220339"
     inkscape:cy="8"
     inkscape:window-x="0"
     inkscape:window-y="0"
     inkscape:window-maximized="1"
     inkscape:current-layer="svg4" />
  <g
     id="g856"
     transform="matrix(0.93333333,0,0,0.93333333,0.61522158,1)"
     style="stroke-width:1.07142854">
    <path
       style="fill:#ff6a66;stroke-width:1.07142854"
       sodipodi:nodetypes="cccccccccccccccccc"
       inkscape:connector-curvature="0"
       id="path841"
       d="M 1,0 V 1 C -0.56729967,0.73990786 -0.56729967,3 1,3 V 5 C -0.56729967,4.7399079 -0.56729967,7 1,7 v 2 c -1.56729967,-0.2600921 -1.56729967,2 0,2 v 2 c -1.56729967,-0.260092 -1.56729967,2 0,2 h 2 11 2 V 13 2 0 H 14 3 Z" />
    <path
       style="fill:#47cdc6;stroke-width:1.07142854"
       id="path839"
       d="M 3,2 H 6 V 4 H 3 Z"
       inkscape:connector-curvature="0" />
    <path
       style="fill:#47cdc6;stroke-width:1.07142854"
       id="path837"
       d="m 7,2 h 3 V 4 H 7 Z"
       inkscape:connector-curvature="0" />
    <path
       style="fill:#47cdc6;stroke-width:1.07142854"
       id="path835"
       d="m 11,2 h 3 v 2 h -3 z"
       inkscape:connector-curvature="0" />
    <path
       style="fill:#47cdc6;stroke-width:1.07142854"
       id="path833"
       d="M 3,5 H 6 V 7 H 3 Z"
       inkscape:connector-curvature="0" />
    <path
       style="fill:#47cdc6;stroke-width:1.07142854"
       id="path831"
       d="m 7,5 h 3 V 7 H 7 Z"
       inkscape:connector-curvature="0" />
    <path
       style="fill:#47cdc6;stroke-width:1.07142854"
       id="path829"
       d="m 11,5 h 3 v 2 h -3 z"
       inkscape:connector-curvature="0" />
    <path
       style="fill:#47cdc6;stroke-width:1.07142854"
       id="path827"
       d="m 3,8 h 3 v 2 H 3 Z"
       inkscape:connector-curvature="0" />
    <path
       style="fill:#47cdc6;stroke-width:1.07142854"
       id="path825"
       d="m 7,8 h 3 v 2 H 7 Z"
       inkscape:connector-curvature="0" />
    <path
       style="fill:#47cdc6;stroke-width:1.07142854"
       id="path823"
       d="m 11,8 h 3 v 2 h -3 z"
       inkscape:connector-curvature="0" />
    <path
       style="fill:#47cdc6;stroke-width:1.07142854"
       id="path821"
       d="m 3,11 h 3 v 2 H 3 Z"
       inkscape:connector-curvature="0" />
    <path
       style="fill:#47cdc6;stroke-width:1.07142854"
       id="path819"
       d="m 7,11 h 3 v 2 H 7 Z"
       inkscape:connector-curvature="0" />
    <path
       style="fill:#47cdc6;stroke-width:1.07142854"
       id="path2"
       d="m 11,11 h 3 v 2 h -3 z"
       inkscape:connector-curvature="0" />
  </g>
</svg>

<svg viewBox="0 0 16 16" xmlns="http://www.w3.org/2000/svg"><path d="m1 0v1h-1v2h1v2h-1v2h1v2h-1v2h1v2h-1v2h1 2 11 2v-2-11-2h-2-11zm2 2h3v2h-3zm4 0h3v2h-3zm4 0h3v2h-3zm-8 3h3v2h-3zm4 0h3v2h-3zm4 0h3v2h-3zm-8 3h3v2h-3zm4 0h3v2h-3zm4 0h3v2h-3zm-8 3h3v2h-3zm4 0h3v2h-3zm4 0h3v2h-3z" fill="#555753"/></svg>
